X:1
T:Dilwyn
T:Dilwyn
T:Public domain
Z:Public domain
%%score { ( 1 2 ) ( 3 4 ) }
L:1/8
M:1/4
K:F
V:1 treble nm="P1"
V:2 treble 
V:3 bass nm="P2"
V:4 bass 
V:1
"^Editor: John Henry Fowler""^( Revision: 11-20-2007 )" F2 |[M:4/4] F2 cc c2 BA | %2
 G2"^( 1920 )" G2 F2 cc | c2 c"^Ralph Vaughan Williams"A c2 c"^( 1872 - 1958 )"d | c6 c2 | %5
 c3 A c2 dd | c2 cA F2 AA | B2 AA G2 G2 |[M:3/4] F6 |] %9
V:2
 A,B, |[M:4/4] C2 CC F2 F2 | F2 E2 F2 FF | E2 D2 E2 F2 | E6 E2 | F2 E2 F2 FF | G2 E2 D2 EE | %7
 D2 E2 F2 E2 |[M:3/4] C6 |] %9
V:3
 F,G, |[M:4/4] A,2 G,G, A,2 B,C | D2 CB, A,2 A,B, | C2 D2 C2 A,2 | A,6 G,2 | A,2 C2 A,2 A,A, | %6
 G,2 C2 A,2 A,A, | D2 CC B,2 C2 |[M:3/4] A,6 |] %9
V:4
 F,2 |[M:4/4] F,2 E,E, D,3 C, | B,,2 C,2 F,,2 F,G, | A,2 F,2 A,2 D,2 | A,,6 C,2 | %5
 F,2 A,2 F,2 D,D, | E,2 C,2 D,2 C,C, | B,,2 C,C, D,2 C,2 |[M:3/4] F,,6 |] %9

